svg/500/rounded/range_hood.svg

<svg xmlns="http://www.w3.org/2000/svg" width="48" height="48" viewBox="0 -960 960 960"><path d="M142.63-154.5q-28.097 0-48.114-20.016Q74.5-194.533 74.5-222.63v-189.196q0-16.967 6.978-32.538 6.978-15.571 18.696-27.288l174.326-176V-777.37q0-28.097 20.016-48.114Q314.533-845.5 342.63-845.5h274.74q28.097 0 48.114 20.016Q685.5-805.467 685.5-777.37v129.718L865.348-466.37q9.133 9.274 14.643 21.947 5.509 12.674 5.509 26.793v195q0 28.097-20.016 48.114Q845.467-154.5 817.37-154.5H142.63ZM480-777.37H342.63v129.196q0 13.847-5.478 26.576-5.478 12.728-14.435 21.685L202.522-479h555.195L637.522-599.674q-9.196-9.196-14.674-21.908-5.478-12.713-5.478-26.831V-777.37H480ZM142.63-222.63h674.74v-188H142.63v188Zm267.805-72.566q-8.622 0-15.029-6.303Q389-307.801 389-316.511q0-8.606 6.406-14.96 6.407-6.355 15.029-6.355h139.37q8.518 0 14.856 6.337Q571-325.152 571-316.636q0 8.723-6.339 15.082-6.338 6.358-14.856 6.358h-139.37Z"/></svg>

<svg xmlns="http://www.w3.org/2000/svg" width="48" height="48" viewBox="0 -960 960 960"><path d="M142.63-154.5q-28.1 0-48.11-20.02-20.02-20.01-20.02-48.11v-189.2q0-16.96 6.98-32.53t18.69-27.29l174.33-176v-129.72q0-28.1 20.02-48.11 20.01-20.02 48.11-20.02h274.74q28.1 0 48.11 20.02 20.02 20.01 20.02 48.11v129.72l179.85 181.28q9.13 9.27 14.64 21.95 5.51 12.67 5.51 26.79v195q0 28.1-20.02 48.11-20.01 20.02-48.11 20.02H142.63ZM480-777.37H342.63v129.2q0 13.84-5.48 26.57t-14.43 21.69L202.52-479h555.2l-120.2-120.67q-9.19-9.2-14.67-21.91t-5.48-26.83v-128.96H480ZM142.63-222.63h674.74v-188H142.63v188Zm267.8-72.57q-8.62 0-15.02-6.3-6.41-6.3-6.41-15.01 0-8.61 6.41-14.96 6.4-6.36 15.02-6.36H549.8q8.52 0 14.86 6.34t6.34 14.85q0 8.73-6.34 15.09-6.34 6.35-14.86 6.35H410.43Z"/></svg>
